chains/fusemainnet/logo.svg

<svg width="86" height="86" viewBox="0 0 86 86" fill="none" xmlns="http://www.w3.org/2000/svg">
<g clip-path="url(#clip0_12748_2930)">
<rect x="0.730591" y="0.306396" width="84.751" height="84.751" rx="42.3755" fill="#B4F9BA"/>
<path d="M34.5636 21.6584L42.7551 16.9278C42.9884 16.7933 43.2777 16.7933 43.511 16.9278L65.1002 29.3923C65.3334 29.5269 65.477 29.7759 65.4792 30.0451L65.5084 38.6179C65.5084 38.8893 65.3648 39.1405 65.1293 39.2751L56.949 43.9989C56.4466 44.2905 55.8163 43.9272 55.814 43.3462L55.7871 35.6526C55.7871 35.3835 55.6413 35.1345 55.408 34.9999L34.5636 22.9683C34.0589 22.6767 34.0589 21.95 34.5636 21.6584Z" fill="#010101"/>
<path d="M29.2722 60.4893L21.0829 55.761C20.8474 55.6264 20.7038 55.3774 20.7038 55.106V30.177C20.7038 29.9078 20.8474 29.6589 21.0806 29.522L28.4916 25.2087C28.7271 25.0719 29.0165 25.0719 29.2497 25.2087L37.4301 29.9325C37.9325 30.2241 37.9347 30.9486 37.4323 31.2424L30.784 35.1117C30.5507 35.2462 30.4071 35.4952 30.4071 35.7666V59.8366C30.4071 60.4197 29.7768 60.7831 29.2722 60.4915V60.4893Z" fill="#010101"/>
<path d="M65.508 45.6473V55.1039C65.508 55.3753 65.3645 55.6243 65.1289 55.7589L43.5398 68.2234C43.3065 68.358 43.0194 68.358 42.7861 68.2234L35.346 63.9617C35.1105 63.8271 34.9647 63.5759 34.9647 63.3044V53.8591C34.9647 53.2781 35.5927 52.9147 36.0974 53.2018L42.7727 57.0262C43.0059 57.1608 43.2931 57.1585 43.5263 57.0262L64.3708 44.9901C64.8755 44.6985 65.5058 45.0619 65.5058 45.6451L65.508 45.6473Z" fill="#010101"/>
</g>
<defs>
<clipPath id="clip0_12748_2930">
<rect width="84.9631" height="84.9631" fill="white" transform="translate(0.518433 0.0943604)"/>
</clipPath>
</defs>
</svg>

<svg xmlns="http://www.w3.org/2000/svg" width="86" height="86" fill="none" viewBox="0 0 86 86"><g clip-path="url(#a)"><rect width="84.751" height="84.751" x=".731" y=".306" fill="#B4F9BA" rx="42.376"/><path fill="#010101" d="m34.564 21.658 8.191-4.73a.76.76 0 0 1 .756 0l21.59 12.464a.76.76 0 0 1 .378.653l.03 8.573a.76.76 0 0 1-.38.657L56.95 44a.757.757 0 0 1-1.135-.653l-.027-7.693a.76.76 0 0 0-.379-.653L34.564 22.968a.756.756 0 0 1 0-1.31M29.272 60.49l-8.19-4.729a.75.75 0 0 1-.378-.655V30.177a.76.76 0 0 1 .377-.655l7.41-4.313a.75.75 0 0 1 .759 0l8.18 4.724a.758.758 0 0 1 .002 1.31l-6.648 3.869a.75.75 0 0 0-.377.655v24.07c0 .583-.63.946-1.135.654zm36.236-14.843v9.457a.75.75 0 0 1-.38.655L43.54 68.223a.75.75 0 0 1-.754 0l-7.44-4.261a.76.76 0 0 1-.381-.658V53.86a.758.758 0 0 1 1.132-.657l6.676 3.824a.76.76 0 0 0 .753 0L64.371 44.99a.756.756 0 0 1 1.135.655z"/></g><defs><clipPath id="a"><path fill="#fff" d="M.518.094h84.963v84.963H.518z"/></clipPath></defs></svg>
